X: 23046
T: Last Slide In Cuil Aodha, The
R: slide
M: 12/8
K: Bminor
e|:"Bm"f2B B2A B2c dcB|"A"A2F FEF "F#m"c2e edc|
"Bm"f2B B2A B2c dcB|1 "A"A2F E2F "D"D3 D2e:|2 "A"A2F E2F "G"D3 D2E||
|:"D"F2F FED "A"A2A dAG|"Bm"F2F FED "A"A3 A2F|
"G"B2c d2e "D"f2A AFA|1 "G"Bcd "A"e2c "D"d3 d2G:|2 "G"Bcd "A"e2c "D"d3 d2||

